X:73
%%scale 0.6
M:4/4
K:Gmaj
BA|G2DE GDGE|G2GA Bdge|dB (3GAB dB (3ABA|GEED EDB,D|G2DE GDGE|G2GA Bdge|dB (3GAB dB (3ABA|GEED E2:|
ga|bgga bgaf|gdBd GA (3BAG|bgga bgag|eaab c'bac'|bgga bgaf|gdBd GA (3BAG|dB (3GAB dB (3ABA|GEED E2:|